assets/svg/1F34F.svg

<svg xmlns="http://www.w3.org/2000/svg" viewBox="0 0 64 64" enable-background="new 0 0 64 64"><g transform="translate(6)"><path d="m31.92 12.625c-2.162 0-4.237.058-6.184.242-1.943-.184-4.02-.242-6.18-.242-10.805 0-19.556 1.265-19.556 14.01 0 12.741 8.751 37.663 19.556 37.663 2.158 0 4.237-1.012 6.18-2.715 1.943 1.703 4.02 2.715 6.184 2.715 10.798 0 19.552-24.922 19.552-37.663.0001-12.745-8.753-14.01-19.552-14.01" fill="#8cc640"/><path d="m33.921 61.39c-3.861-1.048-6.803-3.427-10.817-1.289-1.353.721-3.382 1.388-4.921.904-5.556-1.748-6.895-7.328-8.328-12.499-2.383-8.594-6.475-22.928-3.998-33.716-3.611 1.891-5.857 5.396-5.857 11.844 0 12.741 8.751 37.663 19.556 37.663 2.158 0 4.237-1.012 6.18-2.715 1.943 1.703 4.02 2.715 6.184 2.715 2.01 0 3.956-.868 5.781-2.358-1.24-.058-2.497-.201-3.78-.549" fill="#83ae40"/><path d="m18.276 1.038c.271.078.864 1.683.854 1.838-.228 3.996 5.431 11.73 6.285 12.782 1.981 2.448 2.583 6.05 1.062 6.387-1.466.324-6.219-4.25-7.21-5.13-2.424-2.166-4.516-5.396-5.523-8.492-1.062-3.262.307-8.548 4.532-7.385" fill="#2bb573"/><path d="m28.465.019c-3.285-.467-9.263 7.931-9.592 10.244-.328 2.309 6.448.618 10.289.151 3.955-.479 7.978-.757 8.305-3.066.327-2.31-5.722-6.863-9-7.329" fill="#04a69c"/></g></svg>

<?xml version="1.0" encoding="UTF-8" standalone="no"?>
<!-- Generator: Adobe Illustrator 16.0.0, SVG Export Plug-In . SVG Version: 6.00 Build 0)  -->

<svg
   xmlns:dc="http://purl.org/dc/elements/1.1/"
   xmlns:cc="http://creativecommons.org/ns#"
   xmlns:rdf="http://www.w3.org/1999/02/22-rdf-syntax-ns#"
   xmlns:svg="http://www.w3.org/2000/svg"
   xmlns="http://www.w3.org/2000/svg"
   xmlns:sodipodi="http://sodipodi.sourceforge.net/DTD/sodipodi-0.dtd"
   xmlns:inkscape="http://www.inkscape.org/namespaces/inkscape"
   version="1.1"
   id="Layer_1"
   x="0px"
   y="0px"
   width="64px"
   height="64px"
   viewBox="0 0 64 64"
   enable-background="new 0 0 64 64"
   xml:space="preserve"
   inkscape:version="0.48.5 r10040"
   sodipodi:docname="1F34F.svg"
   inkscape:export-filename="D:\TESTINGEMOJI\SVGTEST\1F34F.png"
   inkscape:export-xdpi="90"
   inkscape:export-ydpi="90"><metadata
   id="metadata3017"><rdf:RDF><cc:Work
       rdf:about=""><dc:format>image/svg+xml</dc:format><dc:type
         rdf:resource="http://purl.org/dc/dcmitype/StillImage" /><dc:title></dc:title></cc:Work></rdf:RDF></metadata><defs
   id="defs3015" /><sodipodi:namedview
   pagecolor="#ffffff"
   bordercolor="#666666"
   borderopacity="1"
   objecttolerance="10"
   gridtolerance="10"
   guidetolerance="10"
   inkscape:pageopacity="0"
   inkscape:pageshadow="2"
   inkscape:window-width="1295"
   inkscape:window-height="889"
   id="namedview3013"
   showgrid="false"
   inkscape:zoom="7.796875"
   inkscape:cx="32"
   inkscape:cy="32"
   inkscape:window-x="300"
   inkscape:window-y="67"
   inkscape:window-maximized="0"
   inkscape:current-layer="Layer_1" />
<g
   id="g3003"
   transform="translate(6,0)">
	<path
   d="m 31.92,12.625 c -2.162,0 -4.237,0.058 -6.184,0.242 -1.943,-0.184 -4.019,-0.242 -6.18,-0.242 C 8.751,12.625 0,13.89 0,26.635 c 0,12.741 8.751,37.663 19.556,37.663 2.158,0 4.237,-1.012 6.18,-2.715 1.943,1.703 4.022,2.715 6.184,2.715 10.798,0 19.552,-24.922 19.552,-37.663 C 51.473,13.89 42.719,12.625 31.92,12.625 z"
   id="path3005"
   inkscape:connector-curvature="0"
   style="fill:#8cc640" />
	<path
   d="M 33.921,61.391 C 30.06,60.343 27.118,57.964 23.104,60.102 21.751,60.823 19.722,61.49 18.183,61.006 12.627,59.258 11.288,53.678 9.855,48.507 7.472,39.913 3.38,25.579 5.857,14.791 2.246,16.682 0,20.187 0,26.635 c 0,12.741 8.751,37.663 19.556,37.663 2.158,0 4.237,-1.012 6.18,-2.715 1.943,1.703 4.022,2.715 6.184,2.715 2.012,0 3.956,-0.868 5.781,-2.358 -1.24,-0.058 -2.497,-0.201 -3.78,-0.549 z"
   id="path3007"
   inkscape:connector-curvature="0"
   style="fill:#83ae40" />
	<path
   d="m 18.276,1.038 c 0.271,0.078 0.864,1.683 0.854,1.838 -0.228,3.996 5.431,11.73 6.285,12.782 1.981,2.448 2.583,6.055 1.062,6.387 -1.466,0.324 -6.219,-4.25 -7.21,-5.13 -2.424,-2.166 -4.516,-5.396 -5.523,-8.492 -1.062,-3.262 0.307,-8.548 4.532,-7.385 z"
   id="path3009"
   inkscape:connector-curvature="0"
   style="fill:#2bb573" />
	<path
   d="M 28.465,0.019 C 25.18,-0.448 19.202,7.95 18.873,10.263 18.545,12.572 25.321,10.881 29.162,10.414 33.117,9.935 37.14,9.657 37.467,7.348 37.794,5.038 31.745,0.485 28.465,0.019 z"
   id="path3011"
   inkscape:connector-curvature="0"
   style="fill:#04a69c" />
</g>
</svg>
